X:335
T:Victory Breakdown
R:reel
C:Don Messer
M:2/4
L:1/16
K:D
A2|A,DFA BAFA|dcdf edAF|GABG FAFA|GFED CDE2|
A,DFA BAFA|dcdf ecAF|GABG FAdf|edce d2:|
|:(3a^ga |fafd Adcd|Bdef g3f|eece aece|defg a2(3a^ga |
fafd Adcd|Bdef g3f|eece aece|d2f2 d2:|
